X: 1
T: The Pleasures of the Town
T: The Pleasure of Providence
B: Hendrickson's "John Griffiths Dancing Master."
R: jig
Z: 2004 John Chambers <jc:trillian.mit.edu>
M: 6/8
L: 1/8
%Q: 3/8=104
K: D
A, \
| "D"DFA DFA | DFA AGF | "G"GAG "D"FGF | "E7"EFD "A7"CB,A, \
| "D"DFA DFA | DFA AGF | "G"GAG "D"FGF | "A7"EDE "D"D2 :|
|: A \
| "D"dfd "A7"ABc | "D"dfd "A7"ABc | "D"dfd "G"edc | "A7"BAG "D"F3 \
| "D"dfd "A7"ABc | "D"dfd     AFD | "G"GAG "D"FAF | "A7"EDE "D"D2 :|
